X: 40944
T: Trip To Cape Spear
R: polka
M: 2/4
K: Gmajor
|:GD EF|G2 d2|cB AG/A/|BG GF|
GD EF|G2 d2|cB AG/A/|BG G2:|
|:Bd dB|cd ef|ge dB|cA A2|
[1 Bd dB|cd ef|ge dc|BG G2:|
[2 GB Ac|Bd ce|dg f/e/d/c/|BG G2||

